X:1
T:James Gibb editions
T:Ego flos campi - Lobo
T:#
%%score [ 1 2 3 4 ]
L:1/8
Q:1/4=108
M:4/4
K:F
V:1 treble nm="Soprano" snm="S"
V:2 treble nm="Alto" snm="A"
V:3 treble-8 nm="Tenor" snm="T"
V:4 bass nm="Bass" snm="B"
V:1
"^Ego flos campi""^Alonso Lobo\n(1555-1617)" c4 G2 B2 | (AGAB c2) G2 | B2 F2 A4 | (G4 F4) | %4
w: E- go flos|cam\- * * * * pi,|e- go flos|cam\- *|
 F2 (F4 E2 | F2 A2) G4 | z4 z2 c2 | G2 B2 (AGAB | c4) A2 A2 | =B2 B2 c3 _B | A2 A2 G4 | z8 | %12
w: pi, cam\- *|* * pi,|e-|go flos cam\- * * *|* pi et|li- li- um con-|val- li- um||
 G4 A2 A2 | !courtesy!_B3 A G2 c2 | c2 F4 G2 | G2 A3 G F2 | B2 A4 G2- | G2 F4 E2 | F4 z2 F2 | %19
w: et li- li-|urn con- val- li-|um, et li-|li- um con- val-|li- um, con\-|* val- li-|um si-|
 F2 F3 F F2 | G4 G2 (A2 | F2 G2) F4 | z2 G2 G2 c2- | cc =B2 c2 d2 | (G2 B2 A3 G | AB c2 B2 AG | %26
w: cut li- li- um|in- ter spi\-|* * nas,|si- cut li\-|* li- um in- ter|spi\- * * *||
 A2 B2 A4 | G2 (FG ABcA | =B2 c4 _B2 | A6 GF) | G4 z2 c2- | c2 B2 A4 | ^G2 A4 G2 | A=BcA B2 c2- | %34
w: * nas, in-|ter spi\- * * * * *|||nas, sic|* a- mi-|ca me\- *||
 c2 =B2) c4- | c4 z4 | z2 c3 ccc | =B2 c G2 AAF | G2 G2 z c2 G | BB A2 =B2 G2 | A B2 F G2 c2 | %41
w: * * a,||sic a- mi- ca|me- a, sic a- mi- ca|me- a, sic a-|mi- ca me- a in-|ter fi- li- as, in-|
 A B2 F G4 | z2 B2 A B2 A | B2 d2 c G2 A | G2 c2 A2 B2- | B2 A2 G2[Q:1/4=107] (G2- | %46
w: ter- fi- li- as,|in- ter fi- li-|as, in- ter fi- li-|as, sic a- mi\-|* ca me- a|
[Q:1/4=105] G[Q:1/4=104]F)[Q:1/4=102] F4[Q:1/4=99] E2 |[Q:1/4=97] D2[Q:1/4=95] F4[Q:1/4=92] E2 | %48
w: * * fi- li-|as, fi- li-|
[Q:1/4=92] F8 |] %49
w: as.|
V:2
 z8 | F4 C2 E2 | (DCDE F2 C2 | E2 C2) D4 | z2 C4 G,2 | B,2 F,2 C2 G2- | G2 D2 F2 (ED | %7
w: |E- go flos|cam\- * * * * *|* * pi,|e- go|flos cam- pi, e\-|* go flos cam\- *|
 EF G4 !courtesy!=F2 | G4) C4 | z2 D2 E2 E2 | F3 E D2 D2 | C6 =B,2 | (C3 =B, C2) D2 | %13
w: |* pi|et li- li-|um con- val- li-|um, con-|val\- * * li-|
 G,2 D2 E2 E2 | F3 E D2 =B,2 | C4 z2 D2 | F2 E2 D4 | G,2 C4 C2 | A,2 C2 C2 D2- | DD C2 D2 F2- | %20
w: um, et li- li-|um con- val- li-|um, et|li- li- um|con- val- li-|um si- cut li\-|* li- um in- ter|
 F2 (ED EDCB, | A,2 G,2 A,B, C2- | C2 =B,2 C4) | D4 z4 | z4 z2 D2 | D2 G3 G ^F2 | ^F2 G2 (E2 =F2 | %27
w: * spi\- * * * * *|||nas,|si-|cut li- li- um|in- ter spi\- *|
 D4 E2 C2) | G4 z2 !courtesy!=G2- | G2 F2 (E4 | D4) C4 | z2 G4 F2 | E8 | C4 G3 G | G4 (E2 F2) | %35
w: |nas, sic|* a- mi\-|* ca,|sic a-|mi-|ca, sic a-|mi- ca *|
 (C4 D4) | E2 E3 FEC | D2 E2 z F2 C | EE D2 E G2 G | GG ^F2 G2 D2 | =F F2 D E2 C2 | D D2 F E2 E2 | %42
w: me\- *|a, sic a- mi- ca|me- a, sic a-|mi- ca me- a, sic a-|mi- ca me- a in-|ter fi- li- as, in-|ter fi- li- as, sic|
 F G2 D F4 | D2 z G E D2 F | (E4 D4) | C4 z2 C2 | A,2 B,B, G,2 (C2- | C2 B,2) C4 | C8 |] %49
w: a- mi- ca me-|a, sic a- mi- ca|me\- *|a in-|ter fi- li- as, fi\-|* * li-|as.|
V:3
 z8 | z4 z2 c2 | G2 B2 (AGAB | c2) G2 A2 B2- | BB A2 G2 g2 | d2 f2 (edec | d4) c4 | z4 z2 d2 | %8
w: |E-|go flos cam\- * * *|* pi, e- go|* flos cam- pi, e-|go flos cam\- * * *|* pi|et|
 e2 e2 f3 e | d2 g2 g2 c2 | d2 c4 =B2 | z2 c2 d2 d2 | e3 d e2 ^f2 | g4 z4 | z4 z2 d2 | e2 e2 f3 e | %16
w: li- li- um con-|val- li- um, con-|val- li- um,|et li- li-|um con- val- li-|um,|et|li- li- um con-|
 (d2 cB A2 B2- | B2) A2 G4 | z2 F2 F2 B2- | BB A2 B2 d2 | c4 c2 c2 | c2 c3 c c2 | d2 d2 e2 g2 | %23
w: val\- * * * *|* li- um|si- cut li\-|* li- um in- ter|spi- nas, si-|cut li- li- um,|si- cut li- li-|
 g4 f4 | e2 (g4 fe | f2) e2 d4 | d4 (c3 A | Bc d2) c2 f2- | f2 e2 d4- | d4 (c3 B | G2) g4 f2 | %31
w: um in-|ter spi\- * *|* nas, in-|ter spi *|* * * nas, in\-|* ter spi\-|* nas, *|* sic a-|
 e2 d2 z2 d2- | d2 c2 =B4 | A2 f4 e2 | d4 c4 | z2 c3 c =B2 | c4 z4 | z2 c3 FAA | G2 G g2 c_ee | %39
w: mi- ca, sic|* a- mi-|ca, sic a-|mi- ca,|sic a- mi-|ca,|sic a- mi- ca|me- a, sic a- mi- ca|
 d4 G2 B2 | c d2 A c2 g2 | f B2 d c2 c2 | d _e2 B c4 | B4 z4 | z2 g4 f2- | f2 c4 _e2 | d2 d2 c4 | %47
w: me- a in-|ter fi- li- as, in-|ter fi- li- as, sic|a- mi- ca me-|a|in- ter|* fi- li-|as, in- ter|
 F4 G4 | A8 |] %49
w: fi- li-|as.|
V:4
 z8 | z8 | z4 F,4 | C,2 E,2 (D,C,D,E, | F,4) C,4 | z4 z2 C2 | G,2 B,2 (A, G,A,B, | C2) G,2 D4 | %8
w: ||E-|go flos cam\- * * *|* pi,|e-|go flos * cam\- * *|* pi, e-|
 C2 C,2 (F,4 | G,4) C,4 | z2 F,2 G,2 G,2 | A,3 G, F,2 G,2 | C,4 z4 | z2 G,4 A,2 | %14
w: go flos cam\-|* pi|et li- li-|um con- val- li-|um,|et li-|
 A,2 B,3 (A, G,2) | (CB,A,G, F,E,D,C, | B,,2 C,2 D,2 D,2 | C,4 C,4 | F,4 z4 | z8 | %20
w: li- um con\- *|val\- * * * * * * *|* li- um, con-|val- li-|um||
 z2 C,2 C,2 F,2- | F,F, E,2 F,2 A,2 | G,4 C,4 | G,3 G, A,2 B,2 | C2 G,2) D4 | z4 z2 D,2 | %26
w: si- cut li\-|* li- um in- ter|spi- nas,|in- ter spi\- *|* * nas,|si-|
 D,2 G,3 G, F,2 | G,2 B,2 A,4 | G,8 | z4 z2 C2- | C2 B,2 A,4 | G,4 D,4 | E,4 E,4 | F,4 G,3 G, | %34
w: cut li- li- um|in- ter spi-|nas,|sic|* a- mi-|ca me-|a, sic|a- mi- ca|
 G,4 C,2 F,2- | F,2 E,2 D,4 | C,2 C3 F,A,A, | G,2 C,2 z C2 C | CC =B,2 C2 z2 | z4 z2 G,2 | %40
w: me- a, sic|* a- mi-|ca, sic a- mi- ca|me- a, sic a-|mi- ca me- a|in-|
 F, B,,2 D, C,4 | z4 z2 C2 | B, _E,2 G, F,4 | z2 G,2 A, B,2 F, | (C2 C,2) D,4 | F,3 E, C,2 C,2 | %46
w: ter fi- li- as,|in-|ter fi- li- as,|sic a- mi- ca|me\- * a|in- ter fi- li-|
 D,2 B,,2 C,4 | D,4 C,4 | F,8 |] %49
w: as, in- ter|fi- li-|as.|

